!!!OTL: Es sollt sich ein J&auml;ger ausjagen (233b), S. 504
!!!id: T0420
**kern
*clefG2
*k[]
*C:
{8g
=1
*M6/8
8g
8g
8g
8g
8a
8b
=2
4cc
8a
4a}
=3
{8a
=4
8a
8a
8a
8cc
8b
8a
=5
4g
8cc
4e}
=6
{8g
=7
*M4/4
4.c
8d
8e
8d
8e
8f
=8
*M6/8
4g
4g
4g}
=9
{8cc
8b
=10
8a
8a
8a
8a
4a}
=11
{8dd
8cc
=12
8b
8g
8g
8g
4g}
=13
{4ff
=14
*M4/4
4ee
4dd
4ee
4dd
=15
8ee
8dd
8ee
8dd
8ee
8dd
8ee}
=16
{8dd
=17
*M6/8
8cc
8b
8a
8a
4a}
=18
{8dd
8cc
=19
8b
8g
8g
8g
4g}
=20
{4ff
=21
*M4/4
4ee
4dd
4gg
4b
=22
2cc}
8r
==
*-
!!!minrhy: 8
!!!meters: 4/4 6/8]  ZZ[9
!!!cut: Es sollt sich ein J&auml;ger ausjagen (233b), S. 504
!!!reg: Luxemburg
!!!trd: Singendes Volk, Esch-Alzette, 1937 posth.
!!!rhy1: X  XXXXXX  X_XX_
!!!rhy2: X  XXXXXX  X_XX_
!!!key: T0420  08  C 4/4 6/8]  ZZ[9
!!!mod: HEPTATONIK IONISCH]  AMBITUS[12
!!!kad: 63565+365+1
!!!akz: 55+16_6+153_1355_66_75_+3+3+3+3_+16_75_+3+5+1+1_
!!!fot: 'a__b__c__d__e__f__g__e__h__
!!!for: 'a__a__b__aw_aw_c__aw_aw_cw_
!!!fok: '^a_^d_V__\__\__\__\__\__\__
!! PHRAS[AUFTAKTIG]
!!!fkt: J&auml;gerlied
!!!bem1: Bögen, hhh Johann Molitor, 1914;
!!!bem2: (233c)- Rodershausen, ? D. Thielen, 1930
!! THILL; Mathias
!! PR[40] 2K[0] 2G[7] 3K[4] 3G[3] 4A[0] 4Ü[0] 5A[0] 6K[0] 6G[4]
!! 7K[2] 7G[0] 8A[0] MEHR[0] SI[21] ABS[91] SR[7] SP[14]
!! ST[24] 2k[2] 2g[18] 3k[11] 3g[9] 4d[0] 4ü[0] 5d[0] 6k[0] 6g[0]
!! 7k[0] 7g[0] 8d[0] mehr[0] si[40] dm[-19] sr[20] sp[20]
!! 1F[2] 2F[50] 3F[42] 4F[0] LF[0] 2P[2] 3P[4] 4P[0] TRI[0] DF[5] AB[96]
!! TF[0] U3K[0] U3[0] U4[0] U4Ü[0] U5[0] U6K[0] U6[0] U7K[0] U7[0]
!! N1[13] N2K[0] N2[17] N3K[0] N3[20] N4[4] N4Ü[0] N5[17] N6K[0] N6[11]
!!!n7k: 0] N7[2] O1[13] O2K[0] O2[2] O3K[0] O3[0] HÖ[0
!!!RNB: symbol: &auml;      = a umlaut  (UTF-8: Å„)
